!!!OTL: Reiterlied. / Volksweise desselben Liedes.
!!!OTL-incipit: WOHL AUF KAMERADEN
!!!COM: Ch. Schule
!!!ARE: Europa, Mitteleuropa, Deutschland
!!!SCT: F0561
!!!TXL: @@DE
!!!YEM: Copyright 1995, estate of Helmut Schaffrath.
**kern	**text
*ICvox	*
*Ivox	*
*clefG2	*
*M4/4	*
*met(c)	*
*k[]	*
*C:	*
!LO:TX:a:t=Einer.	!
!LO:TX:a:t=Marſch-Tempo.	!
{4g	Wohl
=1	=1
4cc	auf,
8.cc	Ka-
16cc	-me-
8.cc/L	-ra-
16gJ	.
(>8.e	-den,
16c)	auf's
=2	=2
4g	Pferd,
8.gL	auf's
16gJ	.
4g}	Pferd!
{4ee	in's
=3	=3
4ee	Feld,
(8.dd	in
16ee)	die
4ff	Frei-
8.ee/	-heit
16ee	ge-
=4	=4
4ee	-ʒo-
4dd	-gen;
4r}	.
{4g	Jm
=5	=5
4cc	Fel-
8.cc	-de
16cc	da
8.cc/L	iſt
16gJ	.
(>8.e	der
16c)	.
=6	=6
4g	Mann
8.gL	noch
16gJ	was
4g}	werth,
{4ee	da
=7	=7
4ee	wird
(8.dd	das
16ee)	.
4ff	Herʒ
8.ee/	noch
16ee	ge-
=8	=8
4ee	-wo-
4dd	-gen;
4r}	.
!LO:TX:a:t=Das ʒweite Mal Alle.	!
{8.gL	Da
16bJ	.
=9	=9
4dd	tritt
4dd	kein
4dd	An-
8.ccL	-drer
16ddJ	.
=10	=10
4ee	für
8.dd/L	ihn
16ddJ	.
4cc/}	ein,
{8.gg/	auf
16gg	ſich
=11	=11
4gg	ſel-
4g	-ber
4g	ſteht
8a	er
8b/	da
=12	=12
(8.cc/L	ganʒ
16eeJ)	.
(8.dd/L	al-
16bJ)	.
4cc/}	-lein!
{8.g/L	Da
16bJ	.
=13	=13
4dd	tritt
4dd	kein
4dd	An-
8.ccL	-drer
16ddJ	.
=14	=14
4ee	für
8.ddL	ihn
16ddJ	.
4cc}	ein,
{8.gg/	auf
16gg	ſich
=15	=15
4gg	ſel-
4g	-ber
4g	ſteht
8a	er
8b/	da
=16	=16
(8.cc/L	ganʒ
16eeJ)	.
(8.dd/L	al-
16bJ)	.
4cc/}	-lein!
==;	==
!!!AGN: Soldaten -, Kriegs - Lied
!!!ONB: ESAC (Essen Associative Code) Database: FINK
!!!AMT: simple quadruple
!!!AIN: vox
!!!EED: Helmut Schaffrath
!!!EEV: 1.0
!!Text: F. Schiller
!!!source: Musikalischer Hausschatz der Deutschen. Eine Sammlung von über 1000 Liedern und Gesängen mit Singstimmen und Klavierbegleitung. Leipzig, Litterarisches Verlags-Haus.
!!!page: 364
!!!GTL: Soldaten- und Jaegerlieder
!!!URL-scan: https://www.digitale-sammlungen.de/en/view/bsb11144622?page=331
!!!ENC: Anna Maria Matuszewska
!!!EEV: 2024/08/02
*-	*-
